X:1
T:O Lord, Descend
T:O Lord, Descend
T:Scott Werdebaugh, 1994
T:Scott Werdebaugh, 1994
T:© 1994 Scott Werdebaugh &amp; New Heart Music, Inc. Reproduce or publish freely for Christian worship or devotions. All other rights reserved.
C:Scott Werdebaugh, 1994
Z:© 1994 Scott Werdebaugh & New Heart Music, Inc.
Z:Reproduce or publish freely for Christian worship or devotions. All other rights reserved.
%%score 1 2 3 4
L:1/8
Q:1/4=120
M:3/4
K:C
V:1 treble 
V:2 bass 
V:3 treble 
V:4 bass 
V:1
"^Prayerfully in Quiet Reverence" [EG]2 | [Ec]4 ([EB][FA]) | [GB]4 [EG]2 | [FA]4 ([DG][DF]) | %4
w: O|Lord, de- *|scend up-|on my *|
 [DG]4 [EG]2 | [FA]4 ([FB][Fc]) | [Ec]4 [Ec]2 | [Dc]4 ([DA][Dc]) | [DB]4 [DG]2 | [Ec]4 [EB][FA] | %10
w: heart And|fill my *|soul with|You this *|hour; Im-|part un- to|
 [GB]4 [EG]2 | [FA]4 ([DG][DF]) | [DG]4 [EG]2 | [CA]4 [DG][DF] | [EG]4 [CE]2 | [CF]4 [B,E][B,D] | %16
w: me Your|Truth, O *|Lord, And|make me to|know Your|love and Your|
 [G,C]6- | [G,C]2 z2 |] %18
w: pow’r.||
V:2
 [C,G,]2 | [C,G,]4 ([C,G,][F,C]) | [E,G,]4 [E,B,]2 | [F,C]4 ([D,B,][D,A,]) | [G,B,]4 [C,G,]2 | %5
 [F,C]4 ([D,B,][F,A,]) | [C,G,]4 [E,G,]2 | [^F,A,]4 ([D,F,][F,A,]) | [G,B,]4 [F,B,]2 | %9
 [C,G,]4 [C,G,][F,C] | [E,G,]4 [E,B,]2 | [F,C]4 ([D,B,][D,A,]) | [G,B,]4 [C,G,]2 | %13
 [F,A,]4 [D,A,][C,A,] | [C,G,]4 [C,G,]2 | [F,A,]4 [D,G,][G,,F,] | [C,E,]6- | [C,E,]2 z2 |] %18
V:3
 [EG]2 | [Ec]4 ([EB][FA]) | [GB]4 [EG]2 | [FA]4 ([DG][DF]) | [DG]4 [EG]2 | [FA]4 ([FB][Fc]) | %6
 [Ec]4 [Ec]2 | [Dc]4 ([DA][Dc]) | [DB]4 [DG]2 | [Ec]4 [EB][FA] | [GB]4 [EG]2 | [FA]4 ([DG][DF]) | %12
 [DG]4 [EG]2 | [CA]4 [DG][DF] | [EG]4 [CE]2 | [CF]4 [B,E][B,D] | [G,C]6- | [G,C]2 z2 |] %18
V:4
 [C,G,]2 | [C,G,]4 ([C,G,][F,C]) | [E,G,]4 [E,B,]2 | [F,C]4 ([D,B,][D,A,]) | [G,B,]4 [C,G,]2 | %5
 [F,C]4 ([D,B,][F,A,]) | [C,G,]4 [E,G,]2 | [^F,A,]4 ([D,F,][F,A,]) | [G,B,]4 [F,B,]2 | %9
 [C,G,]4 [C,G,][F,C] | [E,G,]4 [E,B,]2 | [F,C]4 ([D,B,][D,A,]) | [G,B,]4 [C,G,]2 | %13
 [F,A,]4 [D,A,][C,A,] | [C,G,]4 [C,G,]2 | [F,A,]4 [D,G,][G,,F,] | [C,E,]6- | [C,E,]2 z2 |] %18

